!!!COM:	Anonymous
!!!OTL:	N'o&eacute;s vous point le coc / Cocq en l'orge
!!!AGN:	Song; Chanson
!!!SCT:	Ano3027
!!!SCA:	Ano3027
!!!SMS:	Escorial B
!!!folio:	
!!!voices:	4
**kern	**kern	**kern	**kern
*staff4	*staff3	*staff2	*staff1
*Ivox	*Ivox	*Ivox	*Ivox
*I"Contratenor2	*I"Tenor	*I"Contratenor1	*I"Superius
*I'Ct2	*I'T	*I'Ct1	*I'S
*clefGv2	*clefGv2	*clefGv2	*clefG2
*k[b-]	*k[b-]	*k[b-]	*k[]
*M2/1	*M2/1	*M2/1	*M2/1
*met(C|)	*met(C|)	*met(C|)	*met(C|)
=1-	=1-	=1-	=1-
0r	0A	[0e	[0a
=2	=2	=2	=2
0r	0c	0e]	1a]
.	.	.	[1g
=3	=3	=3	=3
0r	1A	0c	2g]
.	.	.	2f
.	1A	.	1f
=4	=4	=4	=4
0r	1G	0B-	1.e
.	1G	.	.
.	.	.	2d
=5	=5	=5	=5
0A	[0F	0c	0f
=6	=6	=6	=6
0c	0F]	0f	1.a
.	.	.	2b
=7	=7	=7	=7
1A	0r	1e	1cc
1A	.	1f	1cc
=8	=8	=8	=8
1G	0r	2g	1.b
.	.	1e	.
1G	.	.	.
.	.	2d	2a
=9	=9	=9	=9
0F	1c	1f	1a
.	2B-	1d	2g
.	2A	.	2f
=10	=10	=10	=10
0r	0c	1c	1.e
.	.	[1A	.
.	.	.	2f
=11	=11	=11	=11
1c	0r	1A]	2e
.	.	.	2c
2B-	.	1G	1d
2A	.	.	.
=12	=12	=12	=12
1c	1r	1A	0c
1r	2A	[1F	.
.	2B-	.	.
=13	=13	=13	=13
2A	1c	0F]	0r
2B-	.	.	.
1c	1A	.	.
=14	=14	=14	=14
1A	1F	2A	1.cc
.	.	2B-	.
1F	1r	1c	.
.	.	.	2b
=15	=15	=15	=15
0r	0f	1F	0a
.	.	1r	.
=16	=16	=16	=16
0r	1e	1c	0g
.	1d	1G	.
=17	=17	=17	=17
0r	1c	1e	1g
.	1f	1d	1a
=18	=18	=18	=18
0r	1e	2e	1g
.	.	2g	.
.	1d	2a	1f
.	.	2f	.
=19	=19	=19	=19
0r	0c	0g	0e
=20	=20	=20	=20
0f	0r	1.a	0d
.	.	2f	.
=21	=21	=21	=21
1e	0r	1g	1c
1d	.	2a	1f
.	.	2g	.
=22	=22	=22	=22
1c	0r	1e	1g
1f	.	1d	1a
=23	=23	=23	=23
1e	0r	2r	2g
.	.	1g	2cc
1d	.	.	2b
.	.	2f	4a
.	.	.	4b
=24	=24	=24	=24
0cN	1r	0gN	0cc
.	1c	.	.
=25	=25	=25	=25
0A	1c	1a	0r
.	1c	1e	.
=26	=26	=26	=26
0F	1c	0f	0a
.	1c	.	.
=27	=27	=27	=27
0C	1c	0e	0g
.	1c	.	.
=28	=28	=28	=28
0F	1c	2A	1.a
.	.	2B-	.
.	2A	1c	.
.	2B-	.	2g
=29	=29	=29	=29
2A	1c	1r	0e
2B-	.	.	.
1c	1A	2A	.
.	.	2B-	.
=30	=30	=30	=30
1A	1F	1.c	0f
1F	1r	.	.
.	.	[2A	.
=31	=31	=31	=31
0r	1c	2A]	1e
.	.	2c	.
.	2B-	1G	1d
.	2A	.	.
=32	=32	=32	=32
0r	0c	0C	1e
.	.	.	2f
.	.	.	[2g
=33	=33	=33	=33
1c	0r	1C	2g]
.	.	.	2f
2B-	.	1G	2d
2A	.	.	2c
=34	=34	=34	=34
0c	0r	1A	1c
.	.	1F	1r
=35	=35	=35	=35
0r	1A	1c	1f
.	1G	2B-	1g
.	.	2A	.
=36	=36	=36	=36
0r	0F	1c	1a
.	.	2r	[1cc
.	.	[2f	.
=37	=37	=37	=37
1A	0r	2f]	1cc]
.	.	2e	.
1G	.	2e	1b
.	.	2d	.
=38	=38	=38	=38
0F	0r	1f	1cc
.	.	2d	[1a
.	.	[2f	.
=39	=39	=39	=39
1r	1A	2f]	1a]
.	.	2e	.
1G	1B-	1d	2g
.	.	.	2f
=40	=40	=40	=40
1A	0c	1c	1e
1A	.	1F	[1a
=41	=41	=41	=41
1F	1A	[0c	2a]
.	.	.	2f
1F	2A	.	[1f
.	2B-	.	.
=42	=42	=42	=42
1C	1G	0c]	2f]
.	.	.	2e
1C	1G	.	2e
.	.	.	2d
=43	=43	=43	=43
[0cl	[0Fl	0A	[0fl
=44	=44	=44	=44
0c]	0F]	0cl	0f]
==	==	==	==
*-	*-	*-	*-
!!!RDF**kern: l=long note in original notation
!!!RDF**kern: N=signum congruentiae
!!!ENC:	Chris Gage 03-05-2015
!!!END:	2015/03/14/
!!!EED:	Jesse Rodin
!!!EEV:	2016/02/22/
!!!ONB:	Translated from MusicXML and edited on 2016/02/22/ by Craig Sapp
!!muse2ps: C^@{COM}\n@{SMS} @{folio}^v85,85,85,150Q16
